assets/icons/multimedia-player.svg

<?xml version="1.0" encoding="UTF-8" standalone="no"?>
<svg viewBox="0 0 24 24" height="24" width="24" version="1.1" id="svg10" sodipodi:docname="multimedia-player.svg" inkscape:version="1.1 (ce6663b3b7, 2021-05-25)"
   xmlns:inkscape="http://www.inkscape.org/namespaces/inkscape"
   xmlns:sodipodi="http://sodipodi.sourceforge.net/DTD/sodipodi-0.dtd"
   xmlns="http://www.w3.org/2000/svg"
   xmlns:svg="http://www.w3.org/2000/svg">
   <defs id="defs14" />
   <sodipodi:namedview id="namedview12" pagecolor="#ffffff" bordercolor="#666666" borderopacity="1.0" inkscape:pageshadow="2" inkscape:pageopacity="0.0" inkscape:pagecheckerboard="0" showgrid="true" inkscape:snap-page="true" inkscape:zoom="14" inkscape:cx="24.178571" inkscape:cy="4.4642857" inkscape:window-width="1920" inkscape:window-height="1016" inkscape:window-x="0" inkscape:window-y="27" inkscape:window-maximized="1" inkscape:current-layer="svg10">
      <inkscape:grid type="xygrid" id="grid9" />
      <inkscape:grid type="xygrid" id="grid1109" dotted="true" spacingx="0.5" spacingy="0.5" empspacing="10" />
   </sodipodi:namedview>
   <path id="rect1000" style="fill:#808080;fill-opacity:1;fill-rule:evenodd;stroke-width:2;stroke-linecap:square;stroke-linejoin:round" d="M 8.7871094 3 C 8.1101636 3.0055872 7.5365074 3.0481526 7.0273438 3.3027344 C 6.6879015 3.4724556 6.3973384 3.765168 6.2304688 4.140625 C 6.063599 4.516082 6 4.9583339 6 5.5 L 6 18.5 C 6 19.041666 6.0635989 19.483918 6.2304688 19.859375 C 6.3973385 20.234832 6.6879015 20.527544 7.0273438 20.697266 C 7.7062285 21.036708 8.500001 21 9.5 21 L 14.5 21 C 15.499999 21 16.293771 21.03671 16.972656 20.697266 C 17.312099 20.527544 17.602661 20.234832 17.769531 19.859375 C 17.936401 19.483918 18 19.041666 18 18.5 L 18 5.5 C 18 4.9583339 17.9364 4.516082 17.769531 4.140625 C 17.602661 3.765168 17.312099 3.4724556 16.972656 3.3027344 C 16.293771 2.963292 15.499999 3 14.5 3 L 9.5 3 C 9.2500002 3 9.012758 2.9981376 8.7871094 3 z M 9.5 4 L 14.5 4 C 15.499999 4 16.20623 4.036708 16.527344 4.1972656 C 16.687901 4.2775446 16.772339 4.3598326 16.855469 4.546875 C 16.938599 4.7339174 17 5.0416671 17 5.5 L 17 18.5 C 17 18.958333 16.9386 19.266083 16.855469 19.453125 C 16.772339 19.640167 16.687901 19.722456 16.527344 19.802734 C 16.20623 19.963291 15.499999 20 14.5 20 L 9.5 20 C 8.500001 20 7.7937706 19.96329 7.4726562 19.802734 C 7.3120991 19.722454 7.2276613 19.640167 7.1445312 19.453125 C 7.0614013 19.266083 7 18.958333 7 18.5 L 7 5.5 C 7 5.0416671 7.0614011 4.7339174 7.1445312 4.546875 C 7.2276612 4.3598326 7.3120991 4.2775442 7.4726562 4.1972656 C 7.7937705 4.0367085 8.500001 4 9.5 4 z M 9 6 L 9 10 L 15 10 L 15 6 L 9 6 z M 12 12 A 3 3 0 0 0 9 15 A 3 3 0 0 0 12 18 A 3 3 0 0 0 15 15 A 3 3 0 0 0 12 12 z M 12 13 A 2 2 0 0 1 14 15 A 2 2 0 0 1 12 17 A 2 2 0 0 1 10 15 A 2 2 0 0 1 12 13 z " />
</svg>

<svg height="24" width="24" xmlns="http://www.w3.org/2000/svg"><path style="fill:gray;fill-opacity:1;stroke-width:2;stroke-linecap:square;stroke-linejoin:round" d="M8.787 3c-.677.006-1.25.048-1.76.303-.34.17-.63.462-.797.838C6.064 4.516 6 4.958 6 5.5v13c0 .542.064.984.23 1.36.167.375.458.668.797.837.68.34 1.473.303 2.473.303h5c1 0 1.794.037 2.473-.303.34-.17.63-.462.797-.838.166-.375.23-.817.23-1.359v-13c0-.542-.064-.984-.23-1.36a1.72 1.72 0 0 0-.797-.837C16.293 2.963 15.5 3 14.5 3h-5c-.25 0-.487-.002-.713 0zM9.5 4h5c1 0 1.706.037 2.027.197.16.08.245.163.328.35.084.187.145.495.145.953v13c0 .458-.061.766-.145.953a.615.615 0 0 1-.328.35c-.32.16-1.027.197-2.027.197h-5c-1 0-1.706-.037-2.027-.197a.615.615 0 0 1-.328-.35C7.06 19.266 7 18.958 7 18.5v-13c0-.458.061-.766.145-.953a.615.615 0 0 1 .328-.35C7.793 4.037 8.5 4 9.5 4zM9 6v4h6V6H9zm3 6a3 3 0 0 0-3 3 3 3 0 0 0 3 3 3 3 0 0 0 3-3 3 3 0 0 0-3-3zm0 1a2 2 0 0 1 2 2 2 2 0 0 1-2 2 2 2 0 0 1-2-2 2 2 0 0 1 2-2z"/></svg>
